X:2010
T:Boys of Tandernagee, The
S:as recorded by Arcady on After the Ball
N:B part is slightly different than played in Berlin (Germany) sessions
C:Trad
R:jig
D:Shanachie 79077
Z: id:ng-jigs-17 transcribed by Alan Ng Nov. 30, 1997
L:1/8
M:6/8
K:EDor
d|:~B3 ~E3|BAB d2B|ABA DED|AFD FGA|BAB ~E3|BAB def|edB AFA|BEE E2A::\
B2e efe|def afd|e2d dcd|Bcd dBA|B2e efe|def afd|edB AFA|BEE E2A:|


